src/actions/24/mail-mark-unread-new.svg

<svg xmlns="http://www.w3.org/2000/svg" viewBox="0 0 24 24">
  <defs id="defs3051">
    <style type="text/css" id="current-color-scheme">
      .ColorScheme-Text {
        color:#2e3440;
      }
      </style>
  </defs>
 <path style="fill:currentColor;fill-opacity:1;stroke:none" 
     d="M 2 4 L 2 5 L 2 13 L 2 19 L 2 19.414062 L 2 20 L 3 20 L 9 20 L 15 20 L 15 19 L 9 19 L 3 19 L 3 18.414062 L 3.4628906 17.951172 L 9.7304688 11.683594 L 11.183594 13.134766 L 11.998047 13.949219 L 12 13.949219 L 12.816406 13.134766 L 14.269531 11.683594 L 15.585938 13 L 17 13 L 14.976562 10.976562 L 20.728516 5.2226562 L 20.951172 5 L 21 5 L 21 5.2226562 L 21 13 L 22 13 L 22 4 L 21.951172 4 L 21 4 L 20.537109 4 L 3.4628906 4 L 3 4 L 2 4 z M 3 5 L 3.0488281 5 L 3.2714844 5.2226562 L 9.0234375 10.976562 L 3 17 L 3 13 L 3 5.2226562 L 3 5 z M 4.4628906 5 L 19.537109 5 L 12 12.537109 L 4.4628906 5 z M 19 14 L 18.425781 15.613281 L 16.878906 14.878906 L 17.613281 16.425781 L 16 17 L 17.613281 17.574219 L 16.878906 19.121094 L 18.425781 18.386719 L 19 20 L 19.574219 18.386719 L 21.121094 19.121094 L 20.386719 17.574219 L 22 17 L 20.386719 16.425781 L 21.121094 14.878906 L 19.574219 15.613281 L 19 14 z "
     class="ColorScheme-Text"
     />
</svg>

<svg viewBox="0 0 24 24" xmlns="http://www.w3.org/2000/svg">
 <defs>
  <style type="text/css">.ColorScheme-Text {
        color:#2e3440;
      }</style>
 </defs>
 <path class="ColorScheme-Text" d="m2 4v1 8 6 0.41406 0.58594h1 6 6v-1h-6-6v-0.58594l6.7305-6.7305 1.4531 1.4512 0.81445 0.81445h0.001953l0.81641-0.81445 1.4531-1.4512 1.3164 1.3164h1.4141l-2.0234-2.0234 5.752-5.7539 0.22266-0.22266h0.048828v0.22266 7.7773h1v-9h-0.048828-0.95117-0.46289-17.074-0.46289-1zm1 1h0.048828l0.22266 0.22266 5.752 5.7539-6.0234 6.0234v-4-7.7773-0.22266zm1.4629 0h15.074l-7.5371 7.5371-7.5371-7.5371zm14.537 9-0.57422 1.6133-1.5469-0.73438 0.73438 1.5469-1.6133 0.57422 1.6133 0.57422-0.73438 1.5469 1.5469-0.73438 0.57422 1.6133 0.57422-1.6133 1.5469 0.73438-0.73438-1.5469 1.6133-0.57422-1.6133-0.57422 0.73438-1.5469-1.5469 0.73438-0.57422-1.6133z" fill="currentColor"/>
</svg>
